X: 1
T: Capuchin, The
M: 6/8
L: 1/8
R: jig
K: Dmaj
|:D |G2 G GFG |A2 A AB=c |BAG AGF |GGG G2 :|
|:=c |B2 B BGB |=c2 c cec |BAG AGF |GGG G2 :|
